X:1
T:Earl Of Hyndford
C:
G:fiddle reel, early 1780s
M:C
L:1/8
Q:1/4=120
S:The Gow Collection of Scottish Dance Music
K:Cmin
G,| C2 EG cdec| BGFE DB,B,D| C2 EG cdec| BGFD ECCE| 
C2 EG cdec| BGFE DB,B,D| ECFD GEAF| GEFD ECC || G|
cGEe cgec| Bbfg dfBd| ecge dBGc| BEDG ECCG| 
cEGe cgec| BdFB DFBD|  ECFD GEAF| GEFD ECC |]
